X:1
T:Title
%%score { ( 1 4 ) | ( 2 3 ) }
L:1/8
M:4/4
K:C
V:1 treble nm="Grand Piano"
V:4 treble 
V:2 bass 
V:3 bass 
V:1
 z4 z2[Q:1/4=100] [EG]>F | E>E E>[DF] [EG]>[EG] [EG]>[EG] | %2
 [CFA]>[CAc] [CGB]>[CFA] [CEG]2 [CEG]>[EGc] | [FB]2- [DF-B-]>[DF-B-] [DFB]>A G>A | E6 [EG]>[DF] | %5
 E>E E>[DF] [EG]>[EG] [EG]>[EG] | [CFA]>[CAc] [CGB]>[CFA] [CEG]2 [CEG]>[EGc] | %7
 [FB]2- [DF-B-]>[DF-B-] [DFB]>G [FA]>[FB] |[M:3/4] [Ec]6 |[M:1/4] G>G | %10
[M:4/4] e2- [Ge-]>[Ge-] [Ge]>[Ec] [FA]>[Ac] | G6 z2 | d6 z2 | c6 z2 | e6 z2 | [Ad]2 [Ac]2 A2 A>A | %16
 G>F E>G [Ec]2 [B,Fd]2 |[M:3/4] c6 |] %18
V:2
 z4 z2 z z/ D/ | [C,G,C]>[C,G,C] [C,G,C]>[C,G,] [C,C]>[C,C] [C,C]>[C,C] | F,>F, F,>F, C,2 C,>C, | %3
 G,2 G,>G, G,>[K:treble][G,CF] [G,B,F]>[G,F] | [C,G,C]6 [C,G,]>[C,G,] | %5
 [C,G,C]>[C,G,C] [C,G,C]>[C,G,] [C,C]>[C,C] [C,C]>[C,C] | F,>F, F,>F, C,2 C,>C, | %7
 G,2 G,>G, G,>[G,B,F] [G,,G,]>[G,,G,] |[M:3/4] [C,G,]6 |[M:1/4] G,>G, | %10
[M:4/4] [C,C]2 [C,C]>[C,C] [C,C]>[C,C] [C,C]>[C,C] | [C,C]>C, G,,>G,, C,2 C,>E, | %12
 [G,B,F]2 [G,B,]>[G,B,] [G,B,]>[G,DF] [G,A,F]>[G,B,F] | z z/ C/ A,>A, [C,G,]2 G,>G, | %14
 [C,C]2 [C,C]>[C,C] [C,C]>[C,G,] [C,C]>[C,C] | [F,A,]2 [F,C]2 [F,CF]2 [^F,C_E]>[F,CE] | %16
 [G,CE]>[G,D] [G,C]>[G,E] [G,,G,]2 G,,2 |[M:3/4] z z/ E,/ A,>A, G,2 |] %18
V:3
 z4 z2 [C,G,]2 | x8 | x8 | x11/2[K:treble] x5/2 | x8 | x8 | x8 | x8 |[M:3/4] x6 |[M:1/4] x2 | %10
[M:4/4] x8 | x8 | x8 | C,4 z4 | x8 | x8 | x8 |[M:3/4] C,6 |] %18
V:4
 x8 | x8 | x8 | D2 z2 z4 | x8 | x8 | x8 | D2 z2 z4 |[M:3/4] x6 |[M:1/4] x2 |[M:4/4] G2 z2 z4 | %11
 E>[CE] [B,F]>[B,F] [CE]2 [CEG]>[CGc] | z2 F>F F>B c>d | [CE]>E F>F E2 G>G | %14
 G2 G>G G>[Ec] [EG]>[Ge] | x8 | x8 |[M:3/4] [CE]>C F>F E2 |] %18

